X: 1544
T: Hi! Ho! The Merrio
C:Con Conrad, 1891-1938
B: australian traditional tunes wiki
M:2/4
L:1/8
Q: 1/4=100
K:G
V:1 
|:"G"DG G/F/G|"D7"AA A/^G/A|"G"BB "G7"B/A/B|"C"c3B/c/|"G"d2d>e|dB GA|BB "D7"A/G/A|1"G"G2GF/E/:|2"G"G2G2||
"C"ce ce|ce ce|"G"d2d>B|d2-"G7"d2|"C"ce ce|ce ce|"G"d2 d/B/G|"D7"A3F/E/|
"G"DG G/F/G|"D7"AA A/^G/A|"G"BB "G7"B/A/B|"C"c3B/c/|"G"d2d>e|dB GA|BB "D7"A/G/A|"G"G2-Gz||
% abcbook-tune_id 6342d53acffd7a459f00c26d


% abcbook-boost 0
% abcbook-tablature 
% abcbook-transpose 
% abcbook-lastupdated 1665324370288
% abcbook-soundfonts 
% abcbook-repeats 1
% NFF Book 2016

